X:1
T:M'Ginty's Meal and Ale
M:4/4
L:1/16
K:C
 G3 E| C3 C C3 E G4 G3 c| A3 G A3 c G3 G E4| F3 F F3 F E3 E E3 C| D3 E D3 C|\
 B,3 D G3 E| C3 C C3 E G3 G G3 c| A3 G A3 cG G3 G3 E| F3 F F3 F E4 G3 E|\
 C3 C D3 B, C4 G3 G| c3 c c3 c e4 d4| c3 c B3 B A3 A G3 G| F4 F3 F E4 E3 C|\
 D3 E D3 C B,3 D E4| C3 C C3 E G3 G G3 B| A3 G A3 cG G3 G3 E| F3 E F3 F E4 G3 E|\
 C3 C D3 B, C4 G3 G| c3 c c3 c e3 e d3 d| c3 c B3 B A3 A G3 G| F3 F F3 F E4 E3 C|\
 D5.3333335/4 E5.3333335/4 D5.3333335/4 D5.3333335/4 E5.3333335/4 C5.3333335/4 B,3 D4 z|\
 C3 C C3 E G3 G G3 c| A3 G A3 c G3 G G3 E| F3 E F3 G3 E4| G3 E| C3 C D3 B, C4||\
